X: 20872
T: Jolly Roger, The
R: reel
M: 4/4
K: Cmajor
|:cB|A2DE D2DE|FEFG AdcA|G2E2 C2CD|EDEG FEDC|
D2DE FEFG|Adde fedf|edcA dcAG|FDEFD2:|
|:A2|dcAc dcde|fefg agf2|e2c2G3A|GFED CDEC|
D2DE FEFG|cdde fedf|edcA dcAG|FDEFD2:|

